src/assets/filled/ShieldSecurity.svg

<svg width="24" height="24" viewBox="0 0 24 24"  xmlns="http://www.w3.org/2000/svg">
<path d="M18.54 4.17014L13.04 2.11014C12.47 1.90014 11.54 1.90014 10.97 2.11014L5.47005 4.17014C4.41005 4.57014 3.55005 5.81014 3.55005 6.94014V15.0401C3.55005 15.8501 4.08005 16.9201 4.73005 17.4001L10.23 21.5101C11.2 22.2401 12.79 22.2401 13.76 21.5101L19.26 17.4001C19.91 16.9101 20.4401 15.8501 20.4401 15.0401V6.94014C20.4501 5.81014 19.59 4.57014 18.54 4.17014ZM12.75 12.8701V15.5001C12.75 15.9101 12.41 16.2501 12 16.2501C11.59 16.2501 11.25 15.9101 11.25 15.5001V12.8701C10.24 12.5501 9.50005 11.6101 9.50005 10.5001C9.50005 9.12014 10.62 8.00014 12 8.00014C13.38 8.00014 14.5 9.12014 14.5 10.5001C14.5 11.6201 13.76 12.5501 12.75 12.8701Z" />
</svg>

<?xml version="1.0" encoding="UTF-8"?>
<svg width="24" height="24" viewBox="0 0 24 24" xmlns="http://www.w3.org/2000/svg">
 <path d="m18.54 4.1701-5.5-2.06c-0.57-0.21-1.5-0.21-2.07 0l-5.5 2.06c-1.06 0.4-1.92 1.64-1.92 2.77v8.1c0 0.81 0.53 1.88 1.18 2.36l5.5 4.11c0.97 0.73 2.56 0.73 3.53 0l5.5-4.11c0.65-0.49 1.1801-1.55 1.1801-2.36v-8.1c0.01-1.13-0.8501-2.37-1.9001-2.77zm-5.79 8.7v2.63c0 0.41-0.34 0.75-0.75 0.75s-0.75-0.34-0.75-0.75v-2.63c-1.01-0.32-1.75-1.26-1.75-2.37 0-1.38 1.12-2.5 2.5-2.5s2.5 1.12 2.5 2.5c0 1.12-0.74 2.05-1.75 2.37z"/>
</svg>
